X: 274
T:Maggy Louther. JaW.273
T:Maggie Lauder,aka. JaW.273
M:C|
Q:160
S:James Winder Ms, Lancashire, 1835-41
R:Reel
O:England
A:Wyresdale,Lancashire
H:1/8
Z:vmp.Chris Partington, Aug 2004
K:D
"Key Sig G in MS"Addd d>edd|eefd c2e2|fddd d>edd|faag dfa2:|!
|:gggb fffa|eefd c2e2|fffd ggge|faef d2d2:|]
